X: 1
T: Misirlou   ("Am")
C: N.Roubanis 1927
O: Greece
Z: John Chambers <jc:trillian.mit.edu>
M: 4/4
L: 1/8
K: Am
|: "E"E3 F ^G2 A2 | B3c ^d2cB | B8- | B8 \
| E3F ^G2A2 | B3c ^d2cB | B8- | B8 |
| "Am"cB2c B2A2 | BA2B A2^G2 | "E"^G8- | ^G8 \
| "Dm"BA2B A2^G2 | ^GF2G F2EE | "E"E8- | E8 :|
|: "Am"A8- | A6 ^GA | "G"B8- | B6 AB | "F"c6 Bc | "B"^d6 cd | "E"e8- | e8 |
| "Dm"f e2 f e2 d2 | e d2 e d2 c2 | "E"B8- | B8 \
| "Dm"d c2 d c2 B2 | B A2 B ^G2 F2 | "E"E8- | E8 :|
%P: Coda
%|| "Am"c6 Bc | "B"^d6 cd | "E"e8- | e8- | e8- | e z7 |]

